exported-svg/corner-up-left.svg

<svg height="24" viewBox="0 0 24 24" width="24" xmlns="http://www.w3.org/2000/svg"><path d="m5.70710678 10 4.14644661 4.1464466c.19526211.1952622.19526211.5118446 0 .7071068-.19526215.1952621-.51184463.1952621-.70710678 0l-5-5.00000001c-.19526215-.19526215-.19526215-.51184463 0-.70710678l5-5c.19526215-.19526215.51184463-.19526215.70710678 0 .19526211.19526215.19526211.51184463 0 .70710678l-4.14644661 4.14644661h10.79289322c2.4852814 0 4.5 2.0147186 4.5 4.5v7c0 .2761424-.2238576.5-.5.5s-.5-.2238576-.5-.5v-7c0-1.9329966-1.5670034-3.5-3.5-3.5z"/></svg>

<?xml version="1.0" encoding="UTF-8"?>
<svg width="24px" height="24px" viewBox="0 0 24 24" version="1.1" xmlns="http://www.w3.org/2000/svg" xmlns:xlink="http://www.w3.org/1999/xlink">
    <!-- Generator: Sketch 55.2 (78181) - https://sketchapp.com -->
    <title>corner-up-left</title>
    <desc>Created with Sketch.</desc>
    <g id="corner-up-left" stroke="none" stroke-width="1" fill="none" fill-rule="evenodd">
        <path d="M5.70710678,10 L9.85355339,14.1464466 C10.0488155,14.3417088 10.0488155,14.6582912 9.85355339,14.8535534 C9.65829124,15.0488155 9.34170876,15.0488155 9.14644661,14.8535534 L4.14644661,9.85355339 C3.95118446,9.65829124 3.95118446,9.34170876 4.14644661,9.14644661 L9.14644661,4.14644661 C9.34170876,3.95118446 9.65829124,3.95118446 9.85355339,4.14644661 C10.0488155,4.34170876 10.0488155,4.65829124 9.85355339,4.85355339 L5.70710678,9 L16.5,9 C18.9852814,9 21,11.0147186 21,13.5 L21,20.5 C21,20.7761424 20.7761424,21 20.5,21 C20.2238576,21 20,20.7761424 20,20.5 L20,13.5 C20,11.5670034 18.4329966,10 16.5,10 L5.70710678,10 Z" id="Combined-Shape" fill="#000000" fill-rule="nonzero"></path>
    </g>
</svg>
